src/dsmComponents/Icons/car-collision-12px.svg

<?xml version="1.0" encoding="UTF-8"?>
<svg width="12px" height="8px" viewBox="0 0 12 8" version="1.1" xmlns="http://www.w3.org/2000/svg" xmlns:xlink="http://www.w3.org/1999/xlink">
    <!-- Generator: Sketch 59.1 (86144) - https://sketch.com -->
    <title>car-collision-12px</title>
    <desc>Created with Sketch.</desc>
    <defs>
        <path d="M5.3832,5.26523 C5.6122,5.26523 5.7992,5.45323 5.7992,5.68423 C5.7992,5.91623 5.6122,6.10423 5.3832,6.10423 C5.1532,6.10423 4.9662,5.91623 4.9662,5.68423 C4.9662,5.45323 5.1532,5.26523 5.3832,5.26523 Z M1.5302,5.26523 C1.7602,5.26523 1.9462,5.45323 1.9462,5.68423 C1.9462,5.91623 1.7602,6.10423 1.5302,6.10423 C1.3002,6.10423 1.1142,5.91623 1.1142,5.68423 C1.1142,5.45323 1.3002,5.26523 1.5302,5.26523 Z M4.8832,2.86723 C5.0352,2.86723 5.2062,2.97923 5.2642,3.11723 L5.7792,4.34323 C5.7942,4.37823 5.8002,4.41123 5.7992,4.44023 C5.7972,4.47023 5.7882,4.49723 5.7732,4.52023 C5.7412,4.56523 5.6852,4.59323 5.6092,4.59323 L1.3052,4.59323 C1.1532,4.59323 1.0752,4.48123 1.1332,4.34323 L1.6492,3.11723 C1.7062,2.97923 1.8782,2.86723 2.0302,2.86723 L4.8832,2.86723 Z M9.842,6.80223 L10.939,7.12423 L10.864,7.38523 C10.81,7.56923 10.618,7.67623 10.435,7.62223 L10.435,7.62223 L10.001,7.49523 C9.819,7.44123 9.713,7.24723 9.767,7.06323 L9.767,7.06323 L9.842,6.80223 Z M6.5408,7.00653 L6.5408,7.27853 C6.5408,7.47053 6.3858,7.62653 6.1958,7.62653 L6.1958,7.62653 L5.7438,7.62653 C5.5528,7.62653 5.3978,7.47053 5.3978,7.27853 L5.3978,7.27853 L5.3978,7.00653 L6.5408,7.00653 Z M1.5154,7.00653 L1.5154,7.27853 C1.5154,7.47053 1.3594,7.62653 1.1694,7.62653 L1.1694,7.62653 L0.7184,7.62653 C0.5274,7.62653 0.3724,7.47053 0.3724,7.27853 L0.3724,7.27853 L0.3724,7.00653 L1.5154,7.00653 Z M6.9621,1.74413 C7.1201,1.54413 7.4481,1.43913 7.6931,1.51013 L7.6931,1.51013 L10.7541,2.41013 C10.9981,2.48113 11.2191,2.74713 11.2461,3.00213 L11.2461,3.00213 L11.3411,3.90113 L11.3901,4.36313 L11.7881,4.48113 C11.9441,4.52613 12.0331,4.69013 11.9891,4.84713 C11.9431,5.00413 11.7801,5.09413 11.6241,5.04813 L11.6241,5.04813 L11.4461,4.99613 C11.4471,5.21913 11.4151,5.48913 11.3641,5.66913 L11.3641,5.66913 L11.0181,6.86713 L9.9201,6.54413 L9.9211,6.54413 L6.8031,5.62813 L6.8031,5.49113 C6.8031,5.37113 6.7871,5.22213 6.7601,5.06913 C6.9981,5.00613 7.1751,4.78713 7.1751,4.52613 C7.1751,4.21713 6.9251,3.96613 6.6181,3.96613 L6.6181,3.96613 L6.3791,3.96613 L6.2721,3.70013 L5.9311,2.86313 C5.9121,2.81813 5.8801,2.77913 5.8541,2.73713 L5.8541,2.73713 L6.1151,2.81513 L6.4041,2.45013 Z M5.0512,2.53423 C5.2532,2.53423 5.4712,2.65823 5.6022,2.82723 C5.6372,2.87023 5.6672,2.91523 5.6882,2.96423 L5.6882,2.96423 L6.0292,3.80123 L6.1802,4.17423 L6.2032,4.23023 L6.6182,4.23023 C6.7802,4.23023 6.9122,4.36323 6.9122,4.52623 C6.9122,4.69023 6.7802,4.82223 6.6182,4.82223 L6.6182,4.82223 L6.4322,4.82223 C6.4352,4.83123 6.4372,4.84023 6.4402,4.84923 L6.4402,4.84923 C6.4692,4.95423 6.4932,5.06823 6.5122,5.18023 L6.5122,5.18023 C6.5292,5.29523 6.5402,5.40223 6.5402,5.49123 L6.5402,5.49123 L6.5402,6.73923 L5.3982,6.73923 L5.3982,6.73823 L1.5152,6.73823 L1.5152,6.73923 L0.3722,6.73923 L0.3722,5.49123 C0.3722,5.30423 0.4182,5.03623 0.4812,4.82223 L0.4812,4.82223 L0.2932,4.82223 C0.1312,4.82223 0.0002,4.69023 0.0002,4.52623 C0.0002,4.36323 0.1312,4.23023 0.2932,4.23023 L0.2932,4.23023 L0.7102,4.23023 L0.8852,3.79923 L1.2262,2.96423 C1.3222,2.72723 1.6082,2.53423 1.8622,2.53423 L1.8622,2.53423 Z M10.3151,5.12513 C10.0941,5.06013 9.8641,5.18813 9.7991,5.41013 C9.7351,5.63313 9.8621,5.86613 10.0821,5.93113 C10.3031,5.99513 10.5331,5.86813 10.5981,5.64513 C10.6621,5.42213 10.5351,5.19013 10.3151,5.12513 Z M7.7621,1.87713 C7.6151,1.83513 7.4191,1.89413 7.3261,2.01013 L7.3261,2.01013 L6.4901,3.04313 C6.3971,3.15813 6.4401,3.28813 6.5861,3.33113 L6.5861,3.33113 L10.7181,4.54413 C10.8641,4.58713 10.9691,4.50113 10.9511,4.35313 L10.9511,4.35313 L10.7971,3.02913 C10.7801,2.88113 10.6471,2.72513 10.5001,2.68213 L10.5001,2.68213 Z M4.92605,0.249905 L4.9518,0.25953 C4.9678,0.27053 4.9828,0.28953 4.9908,0.31053 L4.9908,0.31053 L5.2118,0.90753 L5.5148,0.71953 C5.5298,0.71153 5.5508,0.71553 5.5698,0.73153 C5.5888,0.74753 5.6028,0.77253 5.6058,0.79653 L5.6058,0.79653 L5.7978,2.36453 C5.8008,2.38553 5.7938,2.40353 5.7828,2.41053 C5.7768,2.41353 5.7718,2.41553 5.7648,2.41553 C5.7418,2.41553 5.7148,2.39553 5.7008,2.36553 L5.7008,2.36553 L5.2558,1.47053 L4.9848,1.63853 C4.9728,1.64653 4.9558,1.64453 4.9388,1.63453 C4.9218,1.62453 4.9078,1.60653 4.8998,1.58553 L4.8998,1.58553 L4.4988,0.56953 C4.4868,0.53953 4.4908,0.51053 4.5088,0.49953 L4.5088,0.49953 L4.9048,0.25453 C4.9168,0.24653 4.9338,0.24853 4.9518,0.25953 Z" id="path-1"></path>
    </defs>
    <g id="Final" stroke="none" stroke-width="1" fill="none" fill-rule="evenodd">
        <g id="All-Nucleo-Icons" transform="translate(-174.000000, -928.000000)">
            <g id="Solo/Nucleo/12px/car-collision" transform="translate(168.000000, 920.000000)">
                <g id="collision" transform="translate(6.000000, 7.000000)">
                    <g id="Group-15" transform="translate(0.000000, 0.524115)">
                        <g id="Colour/Default-Colour" transform="translate(0.000000, 0.225885)">
                            <g>
                                <mask id="mask-2" fill="white">
                                    <use xlink:href="#path-1"></use>
                                </mask>
                                <use id="Mask" fill="#000000" xlink:href="#path-1"></use>
                                <g id="colour/neutral/chia" mask="url(#mask-2)" fill="#737373">
                                    <g transform="translate(-18.000000, -20.000000)" id="Colour">
                                        <rect x="0" y="0" width="48" height="48"></rect>
                                    </g>
                                </g>
                            </g>
                        </g>
                    </g>
                </g>
            </g>
        </g>
    </g>
</svg>

<svg width="12" height="8" xmlns="http://www.w3.org/2000/svg" xmlns:xlink="http://www.w3.org/1999/xlink"><defs><path d="M5.383 5.265c.23 0 .416.188.416.42a.42.42 0 01-.416.42.419.419 0 010-.84zm-3.853 0c.23 0 .416.188.416.42 0 .231-.186.42-.416.42a.418.418 0 01-.416-.42c0-.232.186-.42.416-.42zm3.353-2.398c.152 0 .323.112.381.25l.515 1.226a.228.228 0 01.02.097.165.165 0 01-.026.08c-.032.045-.088.073-.164.073H1.305c-.152 0-.23-.112-.172-.25l.516-1.226a.445.445 0 01.381-.25h2.853zm4.959 3.935l1.097.322-.075.261a.347.347 0 01-.429.237l-.434-.127a.35.35 0 01-.234-.432l.075-.26zm-3.301.205v.272a.347.347 0 01-.345.348h-.452a.347.347 0 01-.346-.348v-.272H6.54zm-5.026 0v.272a.348.348 0 01-.346.348H.72a.347.347 0 01-.347-.348v-.272h1.143zm5.447-5.263a.743.743 0 01.731-.234l3.061.9a.748.748 0 01.492.592l.095.9.05.461.397.118a.297.297 0 01.201.366.294.294 0 01-.365.201l-.178-.052c.001.223-.03.493-.082.673l-.346 1.198-1.098-.323h.001l-3.118-.916v-.137c0-.12-.016-.269-.043-.422a.561.561 0 00-.142-1.103H6.38L6.272 3.7l-.34-.837c-.02-.045-.052-.084-.078-.126l.261.078.29-.365zm-1.91.79c.201 0 .42.124.55.293a.582.582 0 01.086.137l.341.837.151.373.023.056h.415a.296.296 0 010 .592h-.186l.008.027c.03.105.053.22.072.331.017.115.028.222.028.311V6.74H.372V5.491c0-.187.046-.455.11-.669h-.19A.294.294 0 010 4.526c0-.163.131-.296.293-.296H.71l.175-.43.341-.836a.743.743 0 01.636-.43zm5.263 2.591a.416.416 0 00-.516.285.421.421 0 00.283.521.42.42 0 00.233-.806zM7.762 1.877a.446.446 0 00-.436.133L6.49 3.043c-.093.115-.05.245.096.288l4.132 1.213c.146.043.251-.043.233-.19l-.154-1.325a.448.448 0 00-.297-.347zM4.926.25l.026.01c.016.01.03.03.039.05l.22.598.304-.188c.015-.008.036-.004.055.012a.106.106 0 01.036.065l.192 1.568c.003.02-.004.039-.015.046a.037.037 0 01-.018.005c-.023 0-.05-.02-.064-.05l-.445-.895-.271.168c-.012.008-.03.006-.046-.004a.097.097 0 01-.04-.05L4.5.57C4.487.54 4.49.51 4.509.5l.396-.245c.012-.008.029-.006.047.005z" id="car-collision-12px_svg__a"/></defs><use fill="#737373" xlink:href="#car-collision-12px_svg__a" transform="translate(0 -.25)" fill-rule="evenodd"/></svg>
